src/lib/packages/icons/src/assets/filled/shoes-running.svg

<svg width="24" height="24" viewBox="0 0 24 24" fill="none" xmlns="http://www.w3.org/2000/svg">
<path d="M3.54999 9.00994C3.41999 8.91994 3.39998 8.73995 3.47998 8.60995L6.37 4.09995C7.2 2.87995 8.31999 2.91995 8.37 3.07995C8.73 4.36995 9.27999 7.80995 13.93 7.06995C14.16 7.02995 14.38 7.14995 14.47 7.34995L14.98 8.49995H11.99C11.58 8.49995 11.24 8.83995 11.24 9.24995C11.24 9.65995 11.58 9.99995 11.99 9.99995H15.65L16.1 10.9999H13C12.59 10.9999 12.25 11.3399 12.25 11.7499C12.25 12.1599 12.59 12.4999 13 12.4999H16.78L16.87 12.6999C16.95 12.8799 17.13 12.9999 17.33 12.9999C19.65 12.9999 21.55 14.6899 21.92 16.8999C21.95 17.0799 21.8 17.2499 21.62 17.2499H14.99C14.72 17.2499 14.46 17.1599 14.24 16.9999C14.24 16.9999 5.10001 10.1599 3.57001 9.00994H3.54999ZM13.32 18.1999L2.78003 10.2899C2.64003 10.1899 2.43998 10.2199 2.34998 10.3699L2.31 10.4299C1.75 11.3099 1.95998 12.4799 2.78998 13.1099L12.77 20.6C13.12 20.86 13.54 20.9999 13.97 20.9999H20.49C21.32 20.9999 21.99 20.3299 21.99 19.4999V19.0499C21.99 18.8799 21.86 18.7499 21.69 18.7499H14.97C14.37 18.7499 13.8 18.5599 13.32 18.1999ZM9.73999 20.9999C9.73999 20.5899 9.39999 20.2499 8.98999 20.2499H1.98999C1.57999 20.2499 1.23999 20.5899 1.23999 20.9999C1.23999 21.4099 1.57999 21.7499 1.98999 21.7499H8.98999C9.39999 21.7499 9.73999 21.4099 9.73999 20.9999ZM4.73999 17.4999C4.73999 17.0899 4.39999 16.7499 3.98999 16.7499H1.98999C1.57999 16.7499 1.23999 17.0899 1.23999 17.4999C1.23999 17.9099 1.57999 18.2499 1.98999 18.2499H3.98999C4.39999 18.2499 4.73999 17.9099 4.73999 17.4999Z" fill="currentColor"/>
</svg>

<svg xmlns="http://www.w3.org/2000/svg" width="24" height="24" fill="none"><path fill="currentColor" d="M3.55 9.01c-.13-.09-.15-.27-.07-.4L6.37 4.1c.83-1.22 1.95-1.18 2-1.02.36 1.29.91 4.73 5.56 3.99.23-.04.45.08.54.28l.51 1.15h-2.99c-.41 0-.75.34-.75.75s.34.75.75.75h3.66l.45 1H13c-.41 0-.75.34-.75.75s.34.75.75.75h3.78l.09.2c.08.18.26.3.46.3 2.32 0 4.22 1.69 4.59 3.9.03.18-.12.35-.3.35h-6.63c-.27 0-.53-.09-.75-.25 0 0-9.14-6.84-10.67-7.99h-.02Zm9.77 9.19L2.78 10.29a.298.298 0 0 0-.43.08l-.04.06c-.56.88-.35 2.05.48 2.68l9.98 7.49c.35.26.77.4 1.2.4h6.52c.83 0 1.5-.67 1.5-1.5v-.45c0-.17-.13-.3-.3-.3h-6.72c-.6 0-1.17-.19-1.65-.55ZM9.74 21c0-.41-.34-.75-.75-.75h-7c-.41 0-.75.34-.75.75s.34.75.75.75h7c.41 0 .75-.34.75-.75Zm-5-3.5c0-.41-.34-.75-.75-.75h-2c-.41 0-.75.34-.75.75s.34.75.75.75h2c.41 0 .75-.34.75-.75Z"/></svg>
